X:1
T:To Canaan’s Land I’m on My Way
T:To Canaan’s Land I’m on My Way
T:William Matthew Golden
T:William Matthew Golden, 1914
T:Public Domain Courtesy of the Cyber Hymnal™
T:Public Domain Courtesy of the Cyber Hymnal™
C:William Matthew Golden
Z:Public Domain
Z:Courtesy of the Cyber Hymnal™
%%score ( 1 2 ) ( 3 4 )
L:1/8
Q:1/4=114
M:4/4
K:F
V:1 treble 
V:2 treble 
V:3 bass 
V:4 bass 
V:1
 [CF]2 | [FA]2 [FG]2 F2 [FA]2 | [Ac]2 [Bd]2 [Ac]2 [Fc]>[EB] | A4- [FA]2 [DG]>[FA] | [EG]6 [CF]2 | %5
w: 1.~To|Ca- naan’s land I’m|on my way, Where the|soul~of man ne- ver|dies; My|
w: 2.~A|rose is bloom- ing|there for me, Where the|soul~of man ne- ver|dies; And|
w: 3.~A|love light beams a-|cross the foam, Where the|soul~of man ne- ver|dies; It|
w: 4.~My|life will end in|death- less sleep, Where the|soul~of man ne- ver|dies; And|
w: 5.~I’m|on my way to|that fair land, Where the|soul~of man ne- ver|dies; Where|
 [FA]2 [FG]2 F2 [FA]2 | [Fc]2 [Fd]2 [Fc]2 [Fc]>[EB] | A4- [FA]2 [EG]>[EG] | F6 ||"^Refrain" [CF]2 | %10
w: dark- est night will|turn to day, Where the|soul~of man ne- ver|dies.||
w: I will spend e-|ter- ni- ty, Where the|soul~of man ne- ver|dies.||
w: shines to light the|shores of home, Where the|soul~of man ne- ver|dies;|Dear|
w: ev- er- last- ing|joys I’ll reap, Where the|soul~of man ne- ver|dies;||
w: there will be no|part- ing hand, Where the|soul~of man ne- ver|dies;||
 A4- [FA]2 [Fd]2 | c4 [Fc]2 [CF]2 | A4- [FA]2 [DF]2 | [EG]6 [CF]2 | A4- [FA]2 [Fd]2 | %15
w: |||||
w: |||||
w: friends,~there’ll~be no sad|fare- wells, There’ll|be~no tear dimmed|eyes, Where|all~is peace~and joy|
w: |||||
w: |||||
 c4- [Fc]2 [Fc]>[EB] | A4- [FA]2 [EG]>[EG] | [CF]6 |] %18
w: |||
w: |||
w: and love, And the|soul~of man ne- ver|dies.|
w: |||
w: |||
V:2
 x2 | x4 F2 x2 | x8 | F2 F2 x4 | x8 | x8 | x8 | F2 F2 x4 | F6 || x2 | F2 F2 x4 | (F2 EG) x4 | %12
 F2 G2 x4 | x8 | F2 F2 x4 | F2 E2 x4 | F2 F2 x4 | x6 |] %18
V:3
 [F,A,]2 | [F,C]2 [F,B,]2 [F,A,]2 [F,C]2 | [F,F]2 [F,F]2 [F,F]2 [A,C]>[G,C] | %3
 [F,C]2 [D,D]2 [F,C]2 [G,=B,]>[G,B,] | [C,C]6 [F,A,]2 | [F,C]2 [F,B,]2 [F,A,]2 [F,C]2 | %6
 [F,A,]2 [F,B,]2 [F,A,]2 [A,C]>[G,C] | [F,C]2 [D,=B,]2 [C,C]2 [C,_B,]>[C,B,] | [F,,F,A,]6 || %9
 [F,A,]2 | [F,C]2 [C,C]2 [F,C]2 [F,B,]2 | ([F,A,]2 G,B,) [F,A,]2 [F,A,]2 | %12
 [F,C]2 [E,^C]2 [D,D]2 [D,=B,]2 | [C,C]6 [F,A,]2 | [F,C]2 [C,C]2 [F,C]2 [F,B,]2 | %15
 [F,A,]2 [G,B,]2 [A,C]2 [A,C]>[G,C] | [F,C]2 [D,=B,]2 [C,C]2 [C,_B,]>[C,B,] | [F,,F,A,]6 |] %18
V:4
 x2 | x8 | x8 | x8 | x8 | x8 | x8 | x8 | x6 || x2 | x8 | x2 C,2 x4 | x8 | x8 | x8 | x8 | x8 | x6 |] %18

